img/iconmonstr-heart-thin.svg

<svg width="24" height="24" xmlns="http://www.w3.org/2000/svg" fill-rule="evenodd" clip-rule="evenodd"><path d="M12 21.593c-5.63-5.539-11-10.297-11-14.402 0-3.791 3.068-5.191 5.281-5.191 1.312 0 4.151.501 5.719 4.457 1.59-3.968 4.464-4.447 5.726-4.447 2.54 0 5.274 1.621 5.274 5.181 0 4.069-5.136 8.625-11 14.402m5.726-20.583c-2.203 0-4.446 1.042-5.726 3.238-1.285-2.206-3.522-3.248-5.719-3.248-3.183 0-6.281 2.187-6.281 6.191 0 4.661 5.571 9.429 12 15.809 6.43-6.38 12-11.148 12-15.809 0-4.011-3.095-6.181-6.274-6.181"/></svg>

<svg width="24" height="24" viewBox="0 0 24 24" fill="none" xmlns="http://www.w3.org/2000/svg">
<path fill-rule="evenodd" clip-rule="evenodd" d="M12 21.593C6.37 16.054 1 11.296 1 7.191C1 3.4 4.068 2 6.281 2C7.593 2 10.432 2.501 12 6.457C13.59 2.489 16.464 2.01 17.726 2.01C20.266 2.01 23 3.631 23 7.191C23 11.26 17.864 15.816 12 21.593ZM17.726 1.01C15.523 1.01 13.28 2.052 12 4.248C10.715 2.042 8.478 1 6.281 1C3.098 1 0 3.187 0 7.191C0 11.852 5.571 16.62 12 23C18.43 16.62 24 11.852 24 7.191C24 3.18 20.905 1.01 17.726 1.01Z" fill="#E6E6E6"/>
</svg>
